X: 31724
T: Pat Burke's
R: jig
M: 6/8
K: Dmajor
|:G|FAD FAD|fed =cAG|EG=C EG=C|=cBd cAG|
FAD FAD|fed =cAG|EFG BAG|FAD ~D2:|
|:e|fed ceA|ceA ceA|fed faf|gec ~d2e|
fed ceA|ceA cBA|EFG BAG|FAD D2:|

